X:1
T: The Haddington Assembly
C:
R:Jig
Q:180
K:G
M:6/8
L:1/16
|:Bc|d2B2G2G4B2|d2B2G2A6|e2c2A2 A2B2A2|f6g6|d2B2G2 G2d2B2|A2F2D2D4c2|Bcd2B2 c2A2F2|G6G4d2|
g4a2 b2g2e2|f4g2 a2f2d2|efg2e2 d2B2G2|A2B2G2 F2E2D2|g4a2 b2a2g2|f4g2 a2g2f2|efg2e2 fga2f2|g6g4:|
d2|g4a2 b2g2e2|f4g2 a2f2d2|efg2e2 d2B2G2|A2B2G2 F2E2D2|G2B2G2A4c2|Bcd2B2c4e2|d2c2B2 A2G2F2|G6G4||
